X: 392
T: Bir Muhayyer Bûselik
C: Ahmet Avni Konuk
O: Turkey
F: http://compmusic.upf.edu/node/140
N: muhayyerbuselik--kupe--agiraksak--bir--ahmet_avni_konuk
N: makam= muhayyerbuselik
N: form= kupe
N: usul= agiraksak = 9/4
M: 9/4
L: 1/16
K: C _1/4B ^f  
Q: 1/4=60
%%MIDI tuningsystem comma53
g4 a4 z2g4a2 a8 a2_2/4b2 a4 b4  | \
w:  Ah  *  bir  Mu hay yer   | 
c'4 c'2d'2 _2/4b4 b2c'2 a8 d'2c'2 b2a2 g2^3/4f2  | 
w:  Bû *  *  se *  *  lik  va'd  | 
g8 z2a4_2/4b2 c'4 b2a2 d'4 e'4 d'2c'2  | \
w:  *  ey le di  *  *  câ  | 
c'4 c'2_2/4b2 b4 b2a2 a2c'2 b2a2 a6g2 ^3/4f2g2  | 
w:  nâ *  *  nı *  *  mız    | 
a8 z2g4a2 a2c'2 _2/4b2a2 a4 g4 =f4  | \
w:  *  Dön dü  va' *  *  *  din  | 
=f2e2 e2d2 d2_7/8e2 d2c2 d2e2 d2e2 g3^2/4f e2d2 c2_2/4B2  | 
w:  den  *  *  *  hep  *  *  *  ol *  *  *  du   | 
c8 z2c4c2 =B2c2 d2e2 e2d2 c2B2 A4  | \
w:  *  Bû se lik  *  *  *  ef  | 
=B2c2 B2c2 e2d2 c2B2 B2A2 A2^G2 A8 z4  | 
w:  gâ *  *  *  *  *  nı *  mız    | 
|


